X: 9493
T: Dark Horse, The
R: reel
M: 4/4
K: Fmajor
dGGd dcBc|dGG_e|dcBA|Gcc/c/cecc/c/c|Gcec fedc|
dGGd dcBc|dGG_e|dcBA|Gcc/c/cecc/c/c|Gced cBAG|
F/F/F Fd cAGF|EFGE CDEG|F/F/F dF cFAc|dcBA GBAG|
F/F/F Fd cAGF|EFGE CDEC|FGAB cFAc|defe cFAc:|

